X: 19730
T: Jenny Picking Cockles
R: reel
M: 4/4
K: Cmajor
~g2||fagf dc~c2|Bcde {a}fe{a}+A2.f2+|~g2fg dc~c2|Acfc AG~G2|
[G,G]B~g2dc~c2|Bcde {a}fe{a}[A2.f2]|~g2fg dc~c2|Acfc AG~G2|
[G,G]B~g2 dc~c2|Bcde {a}fe{a}[A2.f2]|~g2fg dc~c2|Acfc AG~G2|
[G,G]B~g2 dc~c2|Bcde {a}fe{a}[A2.f2]|~g2fg dc~c2|Acfc AG~G2||
K:G
|:dg~g2 bgag|fd~d2 [df]d[dg][df]|[d2g2][dg][df] gbag|fdcd BG~G2|
dg~g2bgag|~f2ga fddg|bg~a2 gfga|fdcA [G,G]B~g2:|

